src/img/eye2.svg

<svg width="14" height="15" viewBox="0 0 14 15" fill="none" xmlns="http://www.w3.org/2000/svg">
<path d="M14 7.61011C13.9895 10.5846 12.3341 13.4592 8.98653 14.3736C6.48502 15.0621 3.62087 14.4525 1.79204 12.5501C1.17192 11.8984 0.688474 11.1259 0.383669 10.2798C0.0736083 9.41792 -0.0367958 8.51927 0.0105015 7.63113C0.304796 2.51251 5.99626 -2.30656 10.8048 1.19344C12.6021 2.502 13.6479 4.46747 13.9212 6.49074C13.9738 6.86387 14 7.23699 14 7.61011Z" fill="white"/>
<path d="M12.3517 7.76926C12.1887 5.876 10.9498 4.05351 8.8308 3.76156C6.63028 3.46076 5.11428 4.55778 4.46228 5.53981C3.32127 7.27383 2.79978 12.3078 8.04842 12.3697C11.2106 12.414 12.5473 10.043 12.3517 7.76926Z" fill="#AD5707"/>
</svg>

<svg xmlns="http://www.w3.org/2000/svg" width="14" height="15" fill="none" viewBox="0 0 14 15"><path fill="#fff" d="M14 7.61c-.01 2.975-1.666 5.85-5.013 6.764-2.502.688-5.366.079-7.195-1.824a6.493 6.493 0 0 1-1.408-2.27A6.737 6.737 0 0 1 .01 7.63c.294-5.118 5.985-9.938 10.794-6.438 1.797 1.309 2.843 3.274 3.116 5.298.053.373.079.746.079 1.12Z"/><path fill="#AD5707" d="M12.352 7.77c-.163-1.894-1.402-3.716-3.521-4.008-2.2-.301-3.717.796-4.369 1.778-1.14 1.734-1.662 6.768 3.586 6.83 3.163.044 4.5-2.327 4.304-4.6Z"/></svg>
